#define config_gear_32_width 32
#define config_gear_32_height 32
static unsigned char config_gear_32_bits[] = {
0x00,0x00,0x00,0x00,0x00,0x00,0x00,0x00,0x00,0xc0,0x03,0x00,0x00,0xc4,0x23,
0x00,0x00,0xcf,0xf3,0x00,0x00,0xff,0xff,0x00,0x00,0xff,0xff,0x00,0x00,0xff,
0xff,0x00,0xf0,0xff,0xff,0x0f,0xf0,0xff,0xff,0x0f,0xf8,0x3f,0xfc,0x1f,0xf0,
0x0f,0xf0,0x0f,0xe0,0x07,0xe0,0x07,0xe0,0x07,0xe0,0x07,0xfc,0xc3,0xc3,0x3f,
0xfc,0xc3,0xc3,0x3f,0xfc,0xc3,0xc3,0x3f,0xfc,0xc3,0xc3,0x3f,0xe0,0x07,0xe0,
0x07,0xe0,0x07,0xe0,0x07,0xf0,0x0f,0xf0,0x0f,0xf8,0x3f,0xfc,0x1f,0xf0,0xff,
0xff,0x0f,0xf0,0xff,0xff,0x0f,0x00,0xff,0xff,0x00,0x00,0xff,0xff,0x00,0x00,
0xff,0xff,0x00,0x00,0xcf,0xf3,0x00,0x00,0xc4,0x23,0x00,0x00,0xc0,0x03,0x00,
0x00,0x00,0x00,0x00,0x00,0x00,0x00,0x00
};